X: 5909
T: Cambuslang
R: jig
M: 6/8
K: Amixolydian
|:ABA ABd|efe dBA|GGG GAB|ded BAG|
ABA ABd|efe dBd|efe dBA|BAG A3:|
|:AaA gAa|Aaa ged|AgA fAg|def gdB|
AaA gAa|Aaa ged|def gdB|BAG A3:|
|:AaA gAa|BgB aBg|AgA aAg|def gdB|
AaA gAa|BgB aBg|AgA aAg|edB A3:|

